src/assets/dark/IconHNYInactive.svg

<svg width="48" height="49" viewBox="0 0 48 49" fill="none" xmlns="http://www.w3.org/2000/svg">
<mask id="mask0" mask-type="alpha" maskUnits="userSpaceOnUse" x="0" y="0" width="48" height="49">
<g clip-path="url(#clip0)">
<path d="M37.7944 19.3447C37.7944 17.9239 36.9903 16.5925 35.7295 15.8771L26.0401 10.472C24.7594 9.75664 23.1909 9.77651 21.9301 10.4919L12.2804 15.9566C11.0196 16.672 10.2354 18.0034 10.2354 19.4341L10.2651 30.3238C10.285 31.7546 11.0693 33.086 12.3499 33.8013L22.0194 39.2064C22.6349 39.5542 23.3497 39.743 24.0645 39.743C24.7992 39.743 25.5139 39.5443 26.1394 39.1766L35.789 33.7119C37.0498 32.9965 37.8242 31.6651 37.8242 30.2344L37.7944 19.3447ZM35.4018 33.0562L25.7522 38.5209C25.2459 38.809 24.6701 38.968 24.0844 38.968C23.5086 38.9878 22.9228 38.8289 22.4165 38.5407L12.7371 33.1356C11.7146 32.5494 11.0693 31.4764 11.0693 30.3337L11.0196 19.4441C11.0196 18.2915 11.6451 17.2184 12.6676 16.6422L22.3073 11.1775C22.8335 10.8893 23.3994 10.7303 23.9752 10.7303C24.5609 10.7303 25.1268 10.8794 25.6629 11.1775L35.3423 16.5826C36.3648 17.1489 37.0101 18.222 37.0101 19.3745L37.0399 30.2642C37.0498 31.3969 36.4244 32.4699 35.4018 33.0562ZM37.6455 19.3447H37.6554H37.6455Z" fill="#FFDD0F"/>
<path d="M32.6917 21.4714C32.6718 20.5375 32.1655 19.673 31.3316 19.1961L25.3452 15.8577C24.5113 15.3808 23.4689 15.3808 22.6549 15.8577L16.6884 19.2359C15.8545 19.7128 15.3481 20.5772 15.3481 21.5112L15.368 28.2278C15.368 29.1618 15.8942 30.0361 16.7281 30.5031L22.7144 33.8415C23.1215 34.08 23.5881 34.1992 24.0547 34.1992C24.5312 34.1992 24.9978 34.08 25.4048 33.8415L31.3713 30.4534C32.2052 29.9765 32.7115 29.1121 32.7115 28.1781L32.6917 21.4714ZM30.9643 29.7877L24.9978 33.1758C24.7297 33.3348 24.3922 33.4242 24.0547 33.4242C23.7072 33.4242 23.3796 33.3348 23.0917 33.1659L17.1053 29.8275C16.5097 29.4996 16.1424 28.8736 16.1424 28.2278L16.1225 21.5112C16.1225 20.8554 16.4898 20.2394 17.0656 19.9115L23.0321 16.5333C23.3399 16.3644 23.6675 16.275 23.9951 16.275C24.3326 16.275 24.6503 16.3545 24.9382 16.5234H24.9481L30.9345 19.8618C31.5301 20.2096 31.8975 20.8157 31.8975 21.4615L31.9173 28.1781C31.9074 28.8438 31.5401 29.4598 30.9643 29.7877Z" fill="#FFDD0F"/>
<path d="M46.4513 34.9352L42.8476 32.9282C41.825 32.342 41.1797 31.2689 41.1797 30.1263L41.15 19.2366C41.15 18.0841 41.7754 17.011 42.7979 16.4347L46.3818 14.3979L46.5009 14.3283L46.4414 14.2091C46.4116 14.1296 46.3719 14.0601 46.3322 13.9905C46.2925 13.921 46.2627 13.8514 46.2329 13.7818L46.1634 13.6328L46.0244 13.7123L42.4108 15.769C41.1202 16.4844 40.326 17.8357 40.3458 19.2466L40.3756 30.1362C40.3756 31.567 41.1797 32.8984 42.4604 33.6138L46.0939 35.6307L46.223 35.7003L46.2925 35.5711C46.3818 35.4221 46.4513 35.273 46.5109 35.124L46.5704 34.9948L46.4513 34.9352Z" fill="#FFDD0F"/>
<path d="M47.8909 30.265L46.9378 29.7384C46.3422 29.4106 45.9748 28.7846 45.9748 28.1388L45.955 21.4222C45.955 20.7664 46.3223 20.1504 46.8981 19.8225L47.8512 19.276L47.9405 19.2263L47.9206 19.117C47.8909 18.9481 47.8313 18.7792 47.7817 18.6203L47.7221 18.4414L47.5633 18.5308L46.501 19.1369C45.6671 19.594 45.1608 20.4783 45.1608 21.4122L45.1806 28.1288C45.1806 29.0628 45.7068 29.9372 46.5407 30.4041L47.6129 31.0003L47.7717 31.0897L47.8214 30.9109C47.8512 30.8314 47.871 30.742 47.8909 30.6625C47.9107 30.583 47.9306 30.5035 47.9504 30.424L47.9901 30.3048L47.8909 30.265Z" fill="#FFDD0F"/>
<path d="M7.50532 19.4632C7.50532 18.0424 6.70119 16.711 5.44038 15.9956L2.16427 14.1674L2.02528 14.0879L1.95579 14.2369C1.92601 14.3065 1.8863 14.376 1.85651 14.4456C1.8168 14.5151 1.77709 14.5946 1.74731 14.6642L1.68774 14.7933L1.80688 14.8629L5.04328 16.6712C6.06582 17.2574 6.71112 18.3305 6.71112 19.4632L6.7409 30.3528C6.7409 31.5054 6.11546 32.5785 5.09291 33.1548L1.86644 34.9829L1.74731 35.0525L1.80688 35.1717C1.83666 35.2512 1.87637 35.3208 1.91608 35.3903C1.95579 35.4599 1.98557 35.5294 2.01536 35.599L2.08485 35.748L2.22384 35.6685L5.48009 33.8205C6.7409 33.0852 7.52518 31.7538 7.52518 30.3429L7.50532 19.4632Z" fill="#FFDD0F"/>
<path d="M2.39255 21.5605C2.39255 20.6265 1.86639 19.7522 1.03247 19.2852L0.357394 18.9175L0.198552 18.8281L0.148914 19.007C0.0992761 19.1759 0.0595657 19.3448 0.0297828 19.5038L0 19.6031L0.0992761 19.6528L0.645295 19.9608C1.24095 20.2887 1.60827 20.9146 1.60827 21.5605L1.62813 28.2771C1.62813 28.9329 1.26081 29.5489 0.685005 29.8768L0.138987 30.1848L0.0397104 30.2345L0.0595657 30.3438C0.0893485 30.5127 0.148914 30.6816 0.198552 30.8405L0.258118 31.0194L0.41696 30.93L1.09204 30.5425C1.9061 30.0954 2.43226 29.221 2.41241 28.2771L2.39255 21.5605Z" fill="#FFDD0F"/>
<path d="M44.287 11.2072C44.1877 11.0879 44.1182 10.9588 44.009 10.8097L43.9296 10.7004L43.8104 10.77L40.574 12.5982C40.0677 12.8863 39.5018 13.0453 38.9062 13.0453C38.3205 13.0453 37.7447 12.8963 37.2383 12.618L27.5589 7.21296C26.5364 6.62674 25.8911 5.55367 25.8911 4.41105L25.8712 1.02294V0.883834L25.7422 0.873898C25.6528 0.863962 25.5734 0.863962 25.4841 0.854026C25.4046 0.854026 25.3252 0.84409 25.2458 0.834155L25.077 0.824219V0.993128L25.0969 4.41105C25.1167 5.86168 25.9209 7.19309 27.1817 7.90847L36.8512 13.3136C37.4667 13.6613 38.1815 13.8501 38.8963 13.8501H38.9161C39.6309 13.8501 40.3457 13.6712 40.9811 13.3036L44.2572 11.4456L44.4061 11.3562L44.287 11.2072Z" fill="#FFDD0F"/>
<path d="M40.8819 7.35211C40.8223 7.30244 40.7628 7.24282 40.6933 7.18321C40.6337 7.12359 40.5642 7.07391 40.5046 7.0143L40.4252 6.94474L40.3359 6.99442L39.8594 7.26269C39.5715 7.4316 39.2438 7.52102 38.9162 7.52102C38.5787 7.52102 38.2412 7.4316 37.9533 7.26269L31.9669 3.92425C31.3712 3.59637 31.0039 2.97041 31.0039 2.32458V1.92715V1.81786L30.8947 1.78805C30.7359 1.73837 30.5572 1.68869 30.3884 1.65888L30.2097 1.61914V1.79799V2.32458C30.2097 3.25855 30.7359 4.13291 31.5698 4.59989L37.5562 7.93833C37.9533 8.15692 38.4199 8.29602 38.8964 8.29602C39.363 8.29602 39.8296 8.17679 40.2366 7.93833L40.8422 7.59057L41.0209 7.48128L40.8819 7.35211Z" fill="#FFDD0F"/>
<path d="M17.1152 1.80749C17.0358 1.82736 16.9464 1.85717 16.867 1.87704C16.7876 1.89691 16.6982 1.92672 16.6188 1.94659L16.5096 1.9764V2.08569V2.27448C16.5096 2.93024 16.1423 3.54626 15.5665 3.87414L9.6 7.28213C9.3121 7.44111 8.98449 7.53053 8.65688 7.53053C8.31934 7.53053 7.9818 7.44111 7.6939 7.2722L7.50528 7.18278L7.41593 7.1331L7.33651 7.20265C7.26701 7.25233 7.20745 7.31194 7.14788 7.37156C7.08832 7.42124 7.02875 7.48085 6.95926 7.53053L6.80042 7.66963L6.97911 7.77893L7.27694 7.95777C7.6939 8.19623 8.17043 8.30552 8.63702 8.30552C9.12348 8.30552 9.59007 8.18629 9.99711 7.94783L15.9636 4.55972C16.7777 4.0828 17.3038 3.21838 17.3038 2.28441V1.95653V1.75781L17.1152 1.80749Z" fill="#FFDD0F"/>
<path d="M22.347 1.07304V0.914062L22.1882 0.923998C22.1087 0.933934 22.0194 0.94387 21.94 0.94387C21.8605 0.953806 21.7712 0.963742 21.6918 0.963742L21.5528 0.973677V1.11278L21.5726 4.46115C21.5726 5.61371 20.9472 6.68678 19.9247 7.26306L10.275 12.7476C9.76872 13.0358 9.20284 13.1947 8.60718 13.1947C8.02146 13.1947 7.45558 13.0457 6.94927 12.7675L4.04048 11.0983L3.93128 11.0287L3.85186 11.1281C3.75258 11.2573 3.66323 11.3964 3.56396 11.5355L3.47461 11.6746L3.59374 11.7541L6.57202 13.4233C7.18754 13.7512 7.90232 13.9499 8.61711 13.9499C9.35176 13.9499 10.0665 13.771 10.6821 13.4034L20.3317 7.93869C21.5925 7.22331 22.3768 5.87204 22.3669 4.46115L22.347 1.07304Z" fill="#FFDD0F"/>
<path d="M44.2473 38.2513L40.8918 36.3734C39.6111 35.6779 38.0326 35.6779 36.7718 36.4032L27.1321 41.8679C25.8713 42.5833 25.087 43.9147 25.087 45.3455L25.1069 48.6641V48.8131H25.2558C25.4246 48.8131 25.6033 48.7932 25.7621 48.7833L25.9011 48.7733V48.6342L25.8812 45.3356C25.8812 44.183 26.5067 43.1099 27.5292 42.5336L37.1789 37.0689C37.705 36.7808 38.2709 36.6218 38.8467 36.6218C39.4126 36.6218 39.9983 36.7609 40.4947 37.0491L43.8204 38.9071L43.9296 38.9667L44.0091 38.8673C44.1083 38.7382 44.2076 38.5991 44.297 38.45L44.3665 38.3209L44.2473 38.2513Z" fill="#FFDD0F"/>
<path d="M40.8423 42.1179L40.187 41.7503C39.3531 41.2733 38.3306 41.2733 37.4967 41.7503L31.5302 45.1384C30.6963 45.6153 30.1899 46.4797 30.1899 47.4137V47.8906V48.0893L30.3786 48.0297C30.458 48.0098 30.5374 47.99 30.6168 47.9701C30.6962 47.9502 30.7856 47.9304 30.8749 47.9005L30.9841 47.8707V47.7614V47.4038C30.9841 46.748 31.3515 46.132 31.9273 45.8041L37.8938 42.416C38.1817 42.257 38.5192 42.1676 38.8567 42.1676C39.1744 42.1676 39.512 42.257 39.7999 42.4259L40.326 42.714L40.4154 42.7637L40.4948 42.6942C40.6239 42.5849 40.7628 42.4656 40.882 42.3464L41.021 42.2073L40.8423 42.1179Z" fill="#FFDD0F"/>
<path d="M17.2541 47.3445C17.2144 46.4304 16.718 45.566 15.8841 45.0891L9.89775 41.7507C9.06383 41.2737 8.04128 41.2936 7.20737 41.7507L6.97903 41.8798L6.79041 41.9891L6.94925 42.1282C7.00881 42.1779 7.06838 42.2375 7.13787 42.2971C7.19744 42.3568 7.26693 42.4064 7.3265 42.466L7.40592 42.5356L7.49527 42.4859L7.6144 42.4263C7.9023 42.2673 8.23984 42.168 8.57738 42.168C8.89506 42.168 9.2326 42.2574 9.5205 42.4263L15.5068 45.7647C16.1025 46.0926 16.4698 46.7186 16.4698 47.3644V47.5929V47.7022L16.579 47.732C16.6585 47.7519 16.7478 47.7817 16.8272 47.8016C16.9066 47.8215 16.996 47.8513 17.0754 47.8711L17.264 47.9308V47.732L17.2541 47.3445Z" fill="#FFDD0F"/>
<path d="M22.3471 48.6465L22.3272 45.3777C22.3272 43.9469 21.5231 42.6155 20.2623 41.9001L10.5729 36.495C9.29227 35.7796 7.72371 35.7796 6.46291 36.5149L3.66332 38.1046L3.5144 38.194L3.62361 38.3331C3.67325 38.3928 3.71296 38.4524 3.75267 38.5219C3.80231 38.5915 3.84202 38.661 3.90158 38.7306L3.981 38.8299L4.09021 38.7703L6.85008 37.2005C7.37625 36.9123 7.94212 36.7533 8.51792 36.7533C9.08379 36.7533 9.66952 36.8924 10.1659 37.1806L19.8553 42.5857C20.8778 43.1719 21.5231 44.245 21.5231 45.3777L21.5429 48.6167V48.7558L21.672 48.7658C21.7514 48.7757 21.8408 48.7856 21.9202 48.7856C21.9996 48.7956 22.089 48.8055 22.1684 48.8055L22.3372 48.8254L22.3471 48.6465Z" fill="#FFDD0F"/>
</g>
</mask>
<g mask="url(#mask0)">
<ellipse cx="24" cy="24.8242" rx="24.6708" ry="24" fill="#FFDD0F"/>
</g>
<defs>
<clipPath id="clip0">
<rect width="48" height="48" fill="white" transform="translate(0 0.824219)"/>
</clipPath>
</defs>
</svg>

<svg width="48" height="49" fill="none" xmlns="http://www.w3.org/2000/svg"><mask id="a" maskUnits="userSpaceOnUse" x="0" y="0" width="48" height="49"><g clip-path="url(#clip0)" fill="#FFDD0F"><path d="M37.794 19.345c0-1.421-.804-2.752-2.064-3.468l-9.69-5.405a4.204 4.204 0 00-4.11.02l-9.65 5.465a4.015 4.015 0 00-2.045 3.477l.03 10.89A4.053 4.053 0 0012.35 33.8l9.67 5.405c.615.348 1.33.537 2.044.537.735 0 1.45-.199 2.075-.566l9.65-5.465a4.005 4.005 0 002.035-3.478l-.03-10.89zm-2.392 13.711l-9.65 5.465a3.382 3.382 0 01-1.668.447 3.19 3.19 0 01-1.668-.427l-9.679-5.405c-1.022-.587-1.668-1.66-1.668-2.802l-.05-10.89c0-1.152.626-2.226 1.649-2.802l9.64-5.464a3.467 3.467 0 011.667-.448c.586 0 1.152.15 1.688.447l9.68 5.406a3.213 3.213 0 011.667 2.792l.03 10.89c.01 1.132-.616 2.205-1.638 2.791zm2.243-13.711h.01-.01z"/><path d="M32.692 21.471a2.685 2.685 0 00-1.36-2.275l-5.987-3.338a2.708 2.708 0 00-2.69 0l-5.967 3.378a2.624 2.624 0 00-1.34 2.275l.02 6.717c0 .934.526 1.808 1.36 2.275l5.986 3.339c.408.238.874.357 1.34.357.477 0 .944-.119 1.35-.357l5.967-3.389a2.623 2.623 0 001.34-2.275l-.02-6.707zm-1.728 8.317l-5.966 3.388a1.88 1.88 0 01-.943.248c-.348 0-.675-.09-.963-.258l-5.987-3.338a1.85 1.85 0 01-.963-1.6l-.02-6.717c0-.656.368-1.272.944-1.6l5.966-3.378a2 2 0 01.963-.258c.338 0 .655.08.943.248h.01l5.986 3.339c.596.348.963.954.963 1.6l.02 6.716a1.893 1.893 0 01-.953 1.61zM46.451 34.935l-3.603-2.007c-1.023-.586-1.668-1.66-1.668-2.802l-.03-10.89c0-1.152.625-2.225 1.648-2.801l3.584-2.037.119-.07-.06-.119c-.03-.08-.07-.149-.109-.218-.04-.07-.07-.14-.1-.21l-.069-.148-.139.08-3.613 2.056c-1.29.715-2.085 2.067-2.065 3.478l.03 10.89c0 1.43.804 2.761 2.084 3.477l3.634 2.017.129.07.07-.13c.089-.149.158-.298.218-.447l.06-.13-.12-.059z"/><path d="M47.89 30.265l-.952-.527a1.85 1.85 0 01-.963-1.6l-.02-6.716c0-.656.367-1.272.943-1.6l.953-.546.09-.05-.02-.109c-.03-.169-.09-.338-.14-.497l-.059-.179-.159.09-1.062.606a2.6 2.6 0 00-1.34 2.275l.02 6.717c0 .934.526 1.808 1.36 2.275l1.072.596.159.09.05-.18c.03-.079.049-.168.069-.247l.06-.239.04-.12-.1-.039zM7.505 19.463c0-1.42-.804-2.752-2.065-3.467l-3.276-1.829-.139-.08-.07.15c-.029.07-.069.139-.098.209-.04.07-.08.149-.11.218l-.06.13.12.069 3.236 1.808c1.023.586 1.668 1.66 1.668 2.792l.03 10.89a3.221 3.221 0 01-1.648 2.802l-3.227 1.828-.119.07.06.119c.03.08.07.149.11.218.039.07.069.14.098.209l.07.149.139-.08 3.256-1.847c1.26-.736 2.045-2.067 2.045-3.478l-.02-10.88z"/><path d="M2.393 21.56c0-.933-.527-1.808-1.36-2.275l-.676-.367-.158-.09-.05.179c-.05.169-.09.338-.12.497l-.029.1.1.049.545.308c.596.328.963.954.963 1.6l.02 6.716a1.86 1.86 0 01-.943 1.6l-.546.308-.1.05.02.109c.03.169.09.338.14.496l.06.18.158-.09.675-.387a2.543 2.543 0 001.32-2.266l-.02-6.716zM44.287 11.207c-.1-.12-.169-.248-.278-.397l-.08-.11-.119.07-3.236 1.828a3.354 3.354 0 01-1.668.447 3.47 3.47 0 01-1.668-.427l-9.68-5.405c-1.022-.586-1.667-1.66-1.667-2.802l-.02-3.388v-.14l-.129-.01c-.09-.009-.169-.009-.258-.019-.08 0-.159-.01-.238-.02l-.169-.01v.17l.02 3.417a4.102 4.102 0 002.085 3.497l9.67 5.406a4.19 4.19 0 002.044.536h.02c.715 0 1.43-.179 2.065-.546l3.276-1.858.15-.09-.12-.149z"/><path d="M40.882 7.352c-.06-.05-.12-.11-.189-.169-.06-.06-.129-.11-.188-.169l-.08-.07-.09.05-.476.269a1.87 1.87 0 01-.943.258c-.337 0-.675-.09-.963-.258l-5.986-3.339a1.85 1.85 0 01-.963-1.6v-.507l-.11-.029c-.158-.05-.337-.1-.506-.13l-.178-.039v.706c0 .934.526 1.808 1.36 2.275l5.986 3.338c.397.219.864.358 1.34.358.467 0 .934-.12 1.34-.358l.606-.347.179-.11-.14-.129zM17.115 1.807c-.08.02-.169.05-.248.07-.08.02-.169.05-.248.07l-.11.03v.297a1.86 1.86 0 01-.943 1.6L9.6 7.282a1.916 1.916 0 01-1.906-.01l-.189-.09-.09-.049-.078.07c-.07.05-.13.109-.19.169-.059.05-.118.109-.188.159L6.8 7.67l.18.109.297.179c.417.238.893.348 1.36.348.486 0 .953-.12 1.36-.358l5.967-3.388c.814-.477 1.34-1.342 1.34-2.276v-.527l-.189.05z"/><path d="M22.347 1.073V.914l-.159.01c-.08.01-.169.02-.248.02-.08.01-.169.02-.248.02l-.14.01v.139l.02 3.348a3.221 3.221 0 01-1.647 2.802l-9.65 5.485a3.353 3.353 0 01-1.668.447 3.432 3.432 0 01-1.658-.428L4.04 11.098l-.109-.07-.08.1c-.098.13-.188.268-.287.408l-.09.139.12.08 2.978 1.668c.616.328 1.33.527 2.045.527.735 0 1.45-.179 2.065-.547l9.65-5.464c1.26-.716 2.045-2.067 2.035-3.478l-.02-3.388zM44.247 38.251l-3.355-1.878c-1.28-.695-2.86-.695-4.12.03l-9.64 5.465a4.015 4.015 0 00-2.045 3.477l.02 3.32v.148h.149c.169 0 .347-.02.506-.03l.14-.01v-.139l-.02-3.298c0-1.153.625-2.226 1.647-2.802l9.65-5.465a3.468 3.468 0 011.668-.447c.566 0 1.151.139 1.648.427l3.325 1.858.11.06.08-.1c.098-.129.198-.268.287-.417l.07-.13-.12-.069z"/><path d="M40.842 42.118l-.655-.368a2.708 2.708 0 00-2.69 0l-5.967 3.388a2.624 2.624 0 00-1.34 2.276v.675l.189-.06.238-.059c.08-.02.169-.04.258-.07l.11-.03V47.405c0-.656.367-1.272.942-1.6l5.967-3.388c.288-.159.625-.248.963-.248.317 0 .655.089.943.258l.526.288.09.05.079-.07c.129-.11.268-.228.387-.348l.139-.139-.179-.09zM17.254 47.344a2.732 2.732 0 00-1.37-2.255l-5.986-3.338c-.834-.477-1.857-.457-2.69 0l-.229.129-.189.11.16.138c.059.05.118.11.188.17.06.059.129.108.189.168l.079.07.09-.05.118-.06c.288-.159.626-.258.963-.258.318 0 .656.09.944.258l5.986 3.339c.595.328.963.954.963 1.6v.338l.109.029c.08.02.169.05.248.07.08.02.169.05.248.07l.189.059v-.199l-.01-.388z"/><path d="M22.347 48.647l-.02-3.27c0-1.43-.804-2.762-2.065-3.477l-9.69-5.405a4.153 4.153 0 00-4.11.02l-2.799 1.59-.149.089.11.14c.05.059.089.118.129.188.05.07.089.139.149.209l.079.099.11-.06 2.76-1.57a3.467 3.467 0 011.667-.447c.566 0 1.152.14 1.648.428l9.69 5.405c1.022.586 1.667 1.659 1.667 2.792l.02 3.239v.139l.129.01c.08.01.169.02.248.02.08.01.169.02.248.02l.17.02.01-.18z"/></g></mask><g mask="url(#a)"><ellipse cx="24" cy="24.824" rx="24.671" ry="24" fill="#FFDD0F"/></g><defs><clipPath id="clip0"><path fill="#fff" transform="translate(0 .824)" d="M0 0h48v48H0z"/></clipPath></defs></svg>
